assets/images/page/contact/icons/fb.svg

<svg width="22" height="22" viewBox="0 0 22 22" fill="none" xmlns="http://www.w3.org/2000/svg">
<path d="M3.14556 21.4737H10.1497V13.8405H7.63322V11.324H10.1497V8.17845C10.1497 6.44397 11.5607 5.03289 13.2952 5.03289H16.4408V7.54934H13.9243C13.2305 7.54934 12.6661 8.11374 12.6661 8.80756V11.324H16.3273L15.9078 13.8405H12.6661V21.4737H18.3281C20.0626 21.4737 21.4737 20.0626 21.4737 18.3281V3.14556C21.4737 1.41108 20.0626 0 18.3281 0H3.14556C1.41108 0 0 1.41108 0 3.14556V18.3281C0 20.0626 1.41108 21.4737 3.14556 21.4737ZM1.25822 3.14556C1.25822 2.1049 2.1049 1.25822 3.14556 1.25822H18.3281C19.3688 1.25822 20.2155 2.1049 20.2155 3.14556V18.3281C20.2155 19.3688 19.3688 20.2155 18.3281 20.2155H13.9243V15.0987H16.9737L17.8125 10.0658H13.9243V8.80756H17.699V3.77467H13.2952C10.8669 3.77467 8.89145 5.75015 8.89145 8.17845V10.0658H6.375V15.0987H8.89145V20.2155H3.14556C2.1049 20.2155 1.25822 19.3688 1.25822 18.3281V3.14556Z" fill="#00003F"/>
</svg>

<svg width="22" height="22" fill="none" xmlns="http://www.w3.org/2000/svg"><path d="M3.146 21.474h7.004V13.84H7.633v-2.517h2.517V8.178a3.149 3.149 0 0 1 3.145-3.145h3.146v2.516h-2.517a1.26 1.26 0 0 0-1.258 1.259v2.516h3.661l-.42 2.517h-3.24v7.633h5.661a3.15 3.15 0 0 0 3.146-3.146V3.146A3.15 3.15 0 0 0 18.328 0H3.146A3.15 3.15 0 0 0 0 3.146v15.182a3.15 3.15 0 0 0 3.146 3.146ZM1.258 3.146a1.89 1.89 0 0 1 1.888-1.888h15.182a1.89 1.89 0 0 1 1.887 1.888v15.182a1.89 1.89 0 0 1-1.887 1.887h-4.404V15.1h3.05l.838-5.033h-3.888V8.808H17.7V3.775h-4.404a4.409 4.409 0 0 0-4.404 4.403v1.888H6.375v5.033h2.516v5.116H3.146a1.89 1.89 0 0 1-1.888-1.887V3.146Z" fill="#00003F"/></svg>
